!!!OTL: 1342. Soldaten-Wehmuth.
!!!ODT: 1813
!!!ARE: Europa, Mitteleuropa, Deutschland
!!!SCT: E1342A
!!!TXL: @@DE
!!!YEM: Copyright 1995, estate of Helmut Schaffrath.
**kern	**text
*ICvox	*
*M4/4	*
*met(c)	*
*k[f#]	*
*G:	*
!LO:TX:a:t=Ernst und langsam.	!
!LO:TX:a:t=Volksmel. 1813 (aus dem Bergiſchen).	!
{8d	Hol-
8d	-de
=1	=1
4.g	Nacht,
8g	dein
8g	dunkler
8g	.
8a	Schleier
8g	.
=2	=2
8bL	dek-
8aJ	.
8gL	-ket
8f#J	.
4e}	.
{4d	mein_Ge-
=3	=3
4.g	-ſicht
8g	vielleicht
8g	.
8b	ʒum
8dd	letʒ-
8b	-ten-
=4	=4
(4b	-mal!
4a)	.
4r}	.
{8d	Mor-
8d	-gen
=5	=5
4.cc	lieg
8cc	ich
8cc	ſchon
8cc	da-
8dd	-hin
8cc	ge-
=6	=6
8ccL	-ſtrek-
8bJ	.
4b	-ket,
4r}	.
{8g	aus-
8f#	-ge-
=7	=7
4.e	-löſcht
8cc	aus
8dd	der
8cc	Le-
8b	-bend'-
8a	-gen
=8	=8
(<4a	Ʒahl.
4g)	.
4r}	.
==	==
!!!AGN: Staende -, Soldaten -, Kriegs - Lied
!!!ONB: ESAC (Essen Associative Code) Database: ERK3
!!!AMT: simple quadruple
!!!AIN: vox
!!!EED: Helmut Schaffrath
!!!EEV: 1.0
!!!RDF**kern: <=above
!!!GTL: Staendelieder (Berufslieder). 1. Soldaten- und Kriegslieder. Soldatenlieder seit dem 30jaehr. Kriege.
!!!URL-scan: https://rosdok.uni-rostock.de/mcrviewer/recordIdentifier/rosdok_ppn745177999/iview2/phys_0225.iview2?x=-128.77276441889285&y=188.99667812429834&scale=0.5870222003877487&rotation=0&layout=singlePageLayout
!!!ENC: Anna Maria Matuszewska
!!!EEV: 2024/12/27
*-	*-
